src/catppuccin-mocha-light-cursors/top_side_24.svg

<?xml version="1.0" encoding="UTF-8" standalone="no"?>
<svg
   id="svg5327"
   width="24"
   height="24"
   version="1.1"
   sodipodi:docname="top_side_24.svg"
   inkscape:version="1.1.2 (0a00cf5339, 2022-02-04)"
   xmlns:inkscape="http://www.inkscape.org/namespaces/inkscape"
   xmlns:sodipodi="http://sodipodi.sourceforge.net/DTD/sodipodi-0.dtd"
   xmlns="http://www.w3.org/2000/svg"
   xmlns:svg="http://www.w3.org/2000/svg">
  <sodipodi:namedview
     id="namedview11"
     pagecolor="#ffffff"
     bordercolor="#666666"
     borderopacity="1.0"
     inkscape:pageshadow="2"
     inkscape:pageopacity="0.0"
     inkscape:pagecheckerboard="0"
     showgrid="true"
     inkscape:zoom="22.84"
     inkscape:cx="16.024518"
     inkscape:cy="12.478109"
     inkscape:window-width="1896"
     inkscape:window-height="1020"
     inkscape:window-x="9"
     inkscape:window-y="45"
     inkscape:window-maximized="1"
     inkscape:current-layer="svg5327">
    <inkscape:grid
       type="xygrid"
       id="grid1204" />
  </sodipodi:namedview>
  <defs
     id="defs5329">
    <filter
       id="filter877"
       style="color-interpolation-filters:sRGB"
       width="1.101"
       height="1.148"
       x="-0.050000001"
       y="-0.07">
      <feGaussianBlur
         id="feGaussianBlur879"
         stdDeviation=".463" />
    </filter>
    <filter
       id="filter822"
       style="color-interpolation-filters:sRGB"
       width="1.1210909"
       height="1.1776"
       x="-0.060545455"
       y="-0.088800001">
      <feGaussianBlur
         id="feGaussianBlur824"
         stdDeviation=".555" />
    </filter>
    <filter
       inkscape:collect="always"
       style="color-interpolation-filters:sRGB"
       id="filter1627"
       x="-0.020060988"
       y="-0.028418279"
       width="1.040122"
       height="1.0568366">
      <feGaussianBlur
         inkscape:collect="always"
         stdDeviation="0.14209867"
         id="feGaussianBlur1629" />
    </filter>
  </defs>
  <path
     style="color:#000000;opacity:0.1;fill:#000000;fill-opacity:1;stroke-linecap:round;stroke-linejoin:round;-inkscape-stroke:none;filter:url(#filter1627)"
     d="M 15.962891,18.475947 A 1.0001,1.0001 0 0 1 15.072266,18.235713 C 14.406949,17.623377 13.153374,16.94936 11.998047,16.948604 10.846281,16.947857 9.5945218,17.625249 8.9257813,18.237666 A 1.0001,1.0001 0 0 1 7.4023437,16.970088 l 3.7480473,-6 a 1.0001,1.0001 0 0 1 1.695312,0 l 3.751953,6 a 1.0001,1.0001 0 0 1 -0.634765,1.505859 z m -2.828125,-3.273437 -1.136719,-1.818359 -1.134766,1.816406 c 0.383692,-0.08038 0.719864,-0.252222 1.134766,-0.251953 0.414935,2.71e-4 0.752472,0.173526 1.136719,0.253906 z M 4.5,9.499386 a 1.0001,1.0001 0 0 1 -1,-1 v -1 a 1.0001,1.0001 0 0 1 1,-1 h 15 a 1.0001,1.0001 0 0 1 1,1 v 1 a 1.0001,1.0001 0 0 1 -1,1 z"
     id="path1589" />
  <path
     style="color:#000000;fill:#1E1E2E;fill-opacity:1;stroke-linecap:round;stroke-linejoin:round;-inkscape-stroke:none"
     d="M 15.462891,17.975947 A 1.0001,-1.0001 0 0 1 14.572266,17.735713 C 13.906949,17.123377 12.653374,16.44936 11.498047,16.448604 10.346281,16.447857 9.0945218,17.125249 8.4257813,17.737666 A 1.0001,-1.0001 0 0 1 6.9023437,16.470088 l 3.7480473,-6 a 1.0001,-1.0001 0 0 1 1.695312,0 l 3.751953,6 a 1.0001,-1.0001 0 0 1 -0.634765,1.505859 z m -2.828125,-3.273437 -1.136719,-1.818359 -1.134766,1.816406 c 0.383692,-0.08038 0.719864,-0.252222 1.134766,-0.251953 0.414935,2.71e-4 0.752472,0.173526 1.136719,0.253906 z M 4,8.999385 a 1.0001,-1.0001 0 0 1 -1,-1 v -1 a 1.0001,-1.0001 0 0 1 1,-1 h 15 a 1.0001,-1.0001 0 0 1 1,1 v 1 a 1.0001,-1.0001 0 0 1 -1,1 z"
     id="path1388" />
  <path
     id="path1184"
     style="fill:#CDD6F4;fill-opacity:1;stroke:none;stroke-width:0;stroke-linecap:round;stroke-linejoin:round;stroke-miterlimit:4;stroke-dasharray:none;stroke-dashoffset:0;stroke-opacity:1;paint-order:normal"
     d="m 7.75,16.999385 3.748047,-6 3.751953,6 C 14.418549,16.234145 13.000976,15.449588 11.498047,15.448604 9.9951172,15.447629 8.5810046,16.238371 7.75,16.999385 Z m -3.75,-9 v -1 h 15 v 1 z" />
</svg>

<svg xmlns="http://www.w3.org/2000/svg" width="24" height="24">
    <defs>
        <filter id="a" width="1.04" height="1.057" x="-.02" y="-.028" style="color-interpolation-filters:sRGB">
            <feGaussianBlur stdDeviation=".142"/>
        </filter>
    </defs>
    <path d="M15.963 18.476a1 1 0 0 1-.89-.24c-.666-.613-1.92-1.287-3.075-1.287-1.152-.001-2.403.676-3.072 1.289a1 1 0 0 1-1.524-1.268l3.748-6a1 1 0 0 1 1.696 0l3.752 6a1 1 0 0 1-.635 1.506m-2.828-3.273-1.137-1.819-1.135 1.817c.384-.08.72-.253 1.135-.252.415 0 .753.173 1.137.254M4.5 9.499a1 1 0 0 1-1-1v-1a1 1 0 0 1 1-1h15a1 1 0 0 1 1 1v1a1 1 0 0 1-1 1z" style="color:#000;opacity:.1;fill:#000;fill-opacity:1;stroke-linecap:round;stroke-linejoin:round;-inkscape-stroke:none;filter:url(#a)"/>
    <path d="m7.75 17 3.748-6 3.752 6c-.831-.766-2.249-1.55-3.752-1.551s-2.917.79-3.748 1.55M4 8V7h15v1z" style="fill:#cdd6f4;fill-opacity:1;stroke:none;stroke-width:0;stroke-linecap:round;stroke-linejoin:round;stroke-miterlimit:4;stroke-dasharray:none;stroke-dashoffset:0;stroke-opacity:1;paint-order:normal"/>
</svg>
